src/icons/icons_set_01/004-youtube.svg

<svg height="50" viewBox="0 0 50 50" width="50" xmlns="http://www.w3.org/2000/svg"><path d="m41.1220042 4.82486108c-.4836184-1.81836834-1.8979182-3.2422502-3.7129796-3.73813533-3.2702396-.88296467-16.4140869-.88296467-16.4140869-.88296467s-13.13630057 0-16.4140868.88296467c-1.81506145.49588513-3.22936132 1.91976699-3.71297964 3.73813533-.86787126 3.29791078-.86787126 10.17799162-.86787126 10.17799162s0 6.8825964.86787126 10.1779916c.4805052 1.8222386 1.8953583 3.2505117 3.71297964 3.7481976 3.27023952.8829647 16.4140868.8829647 16.4140868.8829647s13.1363006 0 16.4140869-.8829647c1.8150614-.495885 3.2293612-1.9197669 3.7129796-3.7381353.8879958-3.3054575.8879958-10.1880539.8879958-10.1880539s0-6.88008084-.8879958-10.17799162zm-24.4236581 16.42414912v-12.49231499l10.9729114 6.24615749z" transform="translate(3.995 10.032365)"/></svg>

<?xml version="1.0" encoding="UTF-8"?>
<svg width="50px" height="50px" viewBox="0 0 50 50" version="1.1" xmlns="http://www.w3.org/2000/svg" xmlns:xlink="http://www.w3.org/1999/xlink">
    <!-- Generator: Sketch 52.4 (67378) - http://www.bohemiancoding.com/sketch -->
    <title>004-youtube</title>
    <desc>Created with Sketch.</desc>
    <g id="004-youtube" stroke="none" stroke-width="1" fill="none" fill-rule="evenodd">
        <g id="Group" transform="translate(3.995000, 10.032365)" fill="#000000" fill-rule="nonzero">
            <g id="111-youtube">
                <g id="ICONSET-01">
                    <g id="111-youtube">
                        <path d="M41.1220042,4.82486108 C40.6383858,3.00649274 39.224086,1.58261088 37.4090246,1.08672575 C34.138785,0.203761078 20.9949377,0.203761078 20.9949377,0.203761078 C20.9949377,0.203761078 7.85863713,0.203761078 4.5808509,1.08672575 C2.76578945,1.58261088 1.35148958,3.00649274 0.867871257,4.82486108 C0,8.12277186 0,15.0028527 0,15.0028527 C0,15.0028527 0,21.8854491 0.867871257,25.1808443 C1.34837646,27.0030829 2.76322956,28.431356 4.5808509,28.9290419 C7.85109042,29.8120066 20.9949377,29.8120066 20.9949377,29.8120066 C20.9949377,29.8120066 34.1312383,29.8120066 37.4090246,28.9290419 C39.224086,28.4331569 40.6383858,27.009275 41.1220042,25.1909066 C42.01,21.8854491 42.01,15.0028527 42.01,15.0028527 C42.01,15.0028527 42.01,8.12277186 41.1220042,4.82486108 Z M16.6983461,21.2490102 L16.6983461,8.75669521 L27.6712575,15.0028527 L16.6983461,21.2490102 Z" id="Shape"></path>
                    </g>
                </g>
            </g>
        </g>
    </g>
</svg>
